X:117
T: Die schoene Pfarrkoechin
N: A0474
O: Europa, Mitteleuropa, Deutschland
N: Forster V 1556 No. 36.
R: Romanze, Ballade, Lied
M: 4/2
L: 1/4
K: G
 |  |  |  | G2G2_B2B2 | G4=F2
F2 | _B2B2c2c2 | d4z2
g2 | =f3d_e2c2 | d4z2
d2 | d2d2=f2_B2 | d4c2
_B2 | A2G2G2F2 | G8

